X: 110
Q: "Moderato."
M: 2/4
L: 1/8
K: Eb
[| E F G A | B B B B | c A e c | B3 z | c A
e c | B3 z | B A A A | A G G G | G F F B |


